X:1
T:Caprice No. 09
T:Caprice No. 09
T:Op. 20
T:Luigi Legnani (1790 - 1877)
C:Luigi Legnani
%%score ( 1 2 )
L:1/8
Q:1/4=50
M:4/4
K:G
V:1 treble-8 nm="Classical Guitar" snm="Guit."
V:2 treble-8 
V:1
"^Largo"!ff! [GBe]/4[GBe]/4[GBe]/4[GBe]/4[GBe]/4[GBe]/4[GBe]/4[GBe]/4 [GBe]/4[GBe]/4[GBe]/4[GBe]/4[GBe]/4[GBe]/4[GBe]/4[GBe]/4 [GBe]/4[GBe]/4[GBe]/4[GBe]/4[GBe]/4[GBe]/4[GBe]/4[GBe]/4 [GBe]/4[GBe]/4[GBe]/4[GBe]/4[GBe]/4[GBe]/4[GBe]/4[GBe]/4 | %1
 [GBe]2 !>!c'>b b>^d [Be]>[Bf] | [Bg]>[Bg] [Bg]>[Bg] | [cf]>[cf] [G^ce]>[Gce] | %4
 [FB^d]2 !fermata!z2[Q:1/4=70]"^Recitativo"!mf! b2 b>b |{/^abc'} b>f f2 z ffe | %6
 ^d3/2(f/4e/4) d2 z bbc' | c'/a/4f/4^d/4c/4A/4F/4 z2 z ff!-(!g | %8
 !-)!a/{/b}a/4^g/4a/^a/ b/=a/=g/!-(!f/ !-)!ag z2 || %9
[Q:1/4=120]"^Allegro"!p! (3z [GBe][GBe] (3z [GBe][GBe] (3z [GBe][GBe] (3z [GBe][GBe] | %10
 (3z [GBe][GBe] (3z [GBe][GBe] (3z [GBe][GBe] (3z [GBe][GBe] | %11
 (3z [Ace][Ace] (3z [Ace][Ace] (3z [Ace][Ace] (3z [Ace][Ace] | %12
 (3z [Ace][Ace] (3z [Ace][Ace] (3z [Ace][Ace] (3z [Ace][Ace] | %13
"_cresc." (3z [GBe][GBe] (3z [G^ce][Gce] (3z [GBe][GBe] (3z [Gce][Gce] | %14
 (3z [GBe][GBe] (3z [GBe][GBe] (3z [ABe][ABe] (3z [ABe][ABe] | %15
!mf! [GBe]2 z[Q:1/4=70]"^Recitativo" !-(!b !-)!f'e' z/ b/b/c'/ | b^a z/ a/b/^c'/ c'e gf/e/ | %17
 e^d z2 z f/>f/ fg/>a/ | ag z2 z e/f/ gf/e/ | ba z2 z a/b/ c'b/a/ | %20
 ^d' z d'd'/>e'/ !-(!e'!-)!b z2 || %21
[Q:1/4=50]"^Largo"!f! [GBe]/4[GBe]/4[GBe]/4[GBe]/4[GBe]/4[GBe]/4[GBe]/4[GBe]/4 [GBe]/4[GBe]/4[GBe]/4[GBe]/4[GBe]/4[GBe]/4[GBe]/4[GBe]/4 [GBe]/4[GBe]/4[GBe]/4[GBe]/4[GBe]/4[GBe]/4[GBe]/4[GBe]/4 [GBe]/4[GBe]/4[GBe]/4[GBe]/4[GBe]/4[GBe]/4[GBe]/4[GBe]/4 | %22
 [Gce]/4[Gce]/4[Gce]/4[Gce]/4[Gce]/4[Gce]/4[Gce]/4[Gce]/4 [Gce]/4[Gce]/4[Gce]/4[Gce]/4[Gce]/4[Gce]/4[Gce]/4[Gce]/4 [Gce]/4[Gce]/4[Gce]/4[Gce]/4[Gce]/4[Gce]/4[Gce]/4[Gce]/4 [Gce]/4[Gce]/4[Gce]/4[Gce]/4[Gce]/4[Gce]/4[Gce]/4[Gce]/4 | %23
 [G^ce]/4[Gce]/4[Gce]/4[Gce]/4[Gce]/4[Gce]/4[Gce]/4[Gce]/4 [Gce]/4[Gce]/4[Gce]/4[Gce]/4[Gce]/4[Gce]/4[Gce]/4[Gce]/4 | %24
 [G^ce]/4[Gce]/4[Gce]/4[Gce]/4[Gce]/4[Gce]/4[Gce]/4[Gce]/4 [Gce]/4[Gce]/4[Gce]/4[Gce]/4[Gce]/4[Gce]/4[Gce]/4[Gce]/4 | %25
 [GBe]2 z2!>(!"^II" [FAe]2 [FA^d]2!>)! |!p! [GBe]2 !>![^dac']2 [egb]2 !>![cda]2 | %27
 [Beg]2 !>![Acf]2 [GBe]2 !>![FAc]2 | [EGB]2 !>![C^DA]2 [B,EG]2 !>![CFA^d]2 | %29
 [B,EGBe]2 !>![CFA^d]2 [B,EGBe]2!pp! [B,EG]2 | [B,EG]8 |] %31
V:2
 E,7/4F,/4 G,7/4A,/4 B,7/4E/4 G7/4E/4 | B,2 c2 B>[Ac] G>^D | E>E, G,>E, | A,>A, ^A,>A, | %4
 B,2 z2 z4 | z8 | z8 | z2 ^D2 z4 | z8 || E,2 F,2 G,2 F,2 | E,2 F,2 G,2 F,2 | A,2 B,2 C2 B,2 | %12
 A,2 E2 C2 A,2 | B,2 ^A,2 B,2 A,2 | B,2 E2 B,2 ^D2 | E,2 z2 z4 | z8 | z2 [B,^DFB]2 z4 | %18
 z2 [E,B,EG]2 z4 | z2 [A,EAc]2 z4 | z [A,FB^d] z2 z2 [B,FAd]2 || %21
 E,7/4F,/4 G,7/4A,/4 B,7/4E/4 G7/4E/4 | E,7/4=F,/4 G,7/4B,/4 C7/4D/4 E7/4G,/4 | %23
 E,7/4G,/4 ^A,7/4^C/4 | E7/4E,/4 G,7/4A,/4 | B,2 z2 B,2 B,2 | %26
 E,/E,/E,/E,/ E,/E,/E,/E,/ E,/E,/E,/E,/ E,/E,/E,/E,/ | %27
 E,/E,/E,/E,/ E,/E,/E,/E,/ E,/E,/E,/E,/ E,/E,/E,/E,/ | %28
 E,/E,/E,/E,/ E,/E,/E,/E,/ E,/E,/E,/E,/ E,/E,/E,/E,/ | E,/E,/E,/E,/ E,/E,/E,/E,/ E,2 E,2 | E,8 |] %31

